!!!OTL: Renmin hainian zhouzongli
!!!ARE: Asia, China,ÿQinghai Hangyuan
!! I, 225
!!!SCT: C1856
!!!YEM: Copyright 1995, estate of Helmut Schaffrath.
**kern
*ICvox
*Ivox
!! Mixed meters:  3/4; 4/4
*M3/4
*k[]
*C:
{4a
8d
8e
4.d
8e
=1
4g
8a
8cc
2a}
=2
{8a
24cc
24a
24cc
2dd
16dd
16ee
16gg
16aa
=3
8gg
16a
16cc
4.a
8cc
=4
*M4/4
8a
[4.g
2g]}
=5
{4d
4a
4.cc
16a
16cc
=6
*M3/4
8dd
8cc
8dd
8gg
16ff
16gg
8aa}
=7
{4a
8a
8cc
4.a
24cc
24a
24cc
=8
*M4/4
8.a
16g
2.g
=9
8d
8e
4g
8a
8cc
4g
=10
2g
4g
4r}
==
!!!AGN: Shange, Nanxiangling
!! Hui Han
!!!ONB: ESAC (Essen Associative Code) Database: SENGANSU
!!!AMT: irregular
!!!AIN: vox
!!!EED: Helmut Schaffrath
!!!EEV: 1.0
*-
